assets/img/braze_icons/intersect-square.svg

<svg fill="none" height="24" viewBox="0 0 24 24" width="24" xmlns="http://www.w3.org/2000/svg"><g fill="#801ed7"><path d="m5.16146 1h7.67704c.5272-.000015.982-.000029 1.3565.03057.3954.0323.7886.10362 1.167.29641.5645.28762 1.0234.74657 1.311 1.31105.1928.37838.2641.7716.2964 1.16695.0306.37457.0306.82934.0306 1.3565v1.83852h-5.8385c-.5272-.00002-.982-.00003-1.35653.03057-.39534.0323-.78856.10362-1.16694.29641-.56449.28762-1.02343.74656-1.31105 1.31105-.19279.37838-.26411.7716-.29641 1.16694-.0306.37453-.03059.82933-.03057 1.35643v5.8386h-1.83852c-.52716 0-.98193 0-1.3565-.0306-.39535-.0323-.78857-.1036-1.16695-.2964-.56448-.2876-1.02343-.7465-1.31105-1.311-.19279-.3784-.26411-.7716-.29641-1.167-.030599-.3745-.030585-.8293-.03057-1.3564v-7.67718c-.000015-.52712-.000029-.98189.03057-1.35644.0323-.39535.10362-.78857.29641-1.16695.28762-.56448.74657-1.02343 1.31105-1.31105.37838-.19279.7716-.26411 1.16695-.29641.37455-.030599.82936-.030585 1.35648-.03057z"/><path d="m7 17h5.8385c.5272 0 .982 0 1.3565-.0306.3954-.0323.7886-.1036 1.167-.2964.5645-.2876 1.0234-.7465 1.311-1.311.1928-.3784.2641-.7716.2964-1.167.0306-.3745.0306-.8293.0306-1.3564v-5.8386h1.8385c.5272-.00002.982-.00003 1.3565.03057.3954.0323.7886.10362 1.167.29641.5645.28762 1.0234.74657 1.311 1.31105.1928.37838.2641.7716.2964 1.16695.0306.37452.0306.82942.0306 1.35652v7.6771c0 .5271 0 .9819-.0306 1.3564-.0323.3954-.1036.7886-.2964 1.167-.2876.5645-.7465 1.0234-1.311 1.311-.3784.1928-.7716.2641-1.167.2964-.3745.0306-.8294.0306-1.3565.0306h-7.6771c-.5271 0-.9819 0-1.35642-.0306-.39535-.0323-.78857-.1036-1.16695-.2964-.56448-.2876-1.02343-.7465-1.31105-1.311-.19279-.3784-.26411-.7716-.29641-1.167-.0306-.3745-.03059-.8293-.03057-1.3565z"/></g></svg>

<svg width="24" height="24" viewBox="0 0 24 24" fill="none" xmlns="http://www.w3.org/2000/svg">
<path d="M5.16146 1H12.8385C13.3657 0.999985 13.8205 0.999971 14.195 1.03057C14.5904 1.06287 14.9836 1.13419 15.362 1.32698C15.9265 1.6146 16.3854 2.07355 16.673 2.63803C16.8658 3.01641 16.9371 3.40963 16.9694 3.80498C17 4.17955 17 4.63432 17 5.16148V7L11.1615 7C10.6343 6.99998 10.1795 6.99997 9.80497 7.03057C9.40963 7.06287 9.01641 7.13419 8.63803 7.32698C8.07354 7.6146 7.6146 8.07354 7.32698 8.63803C7.13419 9.01641 7.06287 9.40963 7.03057 9.80497C6.99997 10.1795 6.99998 10.6343 7 11.1614L7 17H5.16148C4.63432 17 4.17955 17 3.80498 16.9694C3.40963 16.9371 3.01641 16.8658 2.63803 16.673C2.07355 16.3854 1.6146 15.9265 1.32698 15.362C1.13419 14.9836 1.06287 14.5904 1.03057 14.195C0.999971 13.8205 0.999985 13.3657 1 12.8386V5.16142C0.999985 4.6343 0.999971 4.17953 1.03057 3.80498C1.06287 3.40963 1.13419 3.01641 1.32698 2.63803C1.6146 2.07355 2.07355 1.6146 2.63803 1.32698C3.01641 1.13419 3.40963 1.06287 3.80498 1.03057C4.17953 0.999971 4.63434 0.999985 5.16146 1Z" fill="#801ED7"/>
<path d="M7 17H12.8385C13.3657 17 13.8205 17 14.195 16.9694C14.5904 16.9371 14.9836 16.8658 15.362 16.673C15.9265 16.3854 16.3854 15.9265 16.673 15.362C16.8658 14.9836 16.9371 14.5904 16.9694 14.195C17 13.8205 17 13.3657 17 12.8386V7H18.8385C19.3657 6.99998 19.8205 6.99997 20.195 7.03057C20.5904 7.06287 20.9836 7.13419 21.362 7.32698C21.9265 7.6146 22.3854 8.07355 22.673 8.63803C22.8658 9.01641 22.9371 9.40963 22.9694 9.80498C23 10.1795 23 10.6344 23 11.1615V18.8386C23 19.3657 23 19.8205 22.9694 20.195C22.9371 20.5904 22.8658 20.9836 22.673 21.362C22.3854 21.9265 21.9265 22.3854 21.362 22.673C20.9836 22.8658 20.5904 22.9371 20.195 22.9694C19.8205 23 19.3656 23 18.8385 23H11.1614C10.6343 23 10.1795 23 9.80498 22.9694C9.40963 22.9371 9.01641 22.8658 8.63803 22.673C8.07355 22.3854 7.6146 21.9265 7.32698 21.362C7.13419 20.9836 7.06287 20.5904 7.03057 20.195C6.99997 19.8205 6.99998 19.3657 7 18.8385V17Z" fill="#801ED7"/>
</svg>
